public/facebook.svg

<svg width="24" height="24" viewBox="0 0 24 24" fill="none" xmlns="http://www.w3.org/2000/svg">
<g clip-path="url(#clip0_765_382)">
<path d="M4.38226 0C1.95468 0 0 1.95468 0 4.38226V19.6178C0 22.0453 1.95468 24 4.38226 24H12.6398V14.6175H10.1588V11.2395H12.6398V8.35351C12.6398 6.08611 14.1057 4.00426 17.4825 4.00426C18.8497 4.00426 19.8608 4.13551 19.8608 4.13551L19.7813 7.29002C19.7813 7.29002 18.7501 7.28028 17.625 7.28028C16.4073 7.28028 16.212 7.84135 16.212 8.77279V11.2395H19.878L19.7183 14.6175H16.212V24H19.6177C22.0453 24 24 22.0454 24 19.6178V4.38228C24 1.9547 22.0453 2.4e-05 19.6177 2.4e-05H4.38223L4.38226 0Z" fill="#94a3b8"/>
</g>
<defs>
<clipPath id="clip0_765_382">
<rect width="24" height="24" fill="white"/>
</clipPath>
</defs>
</svg>

<svg xmlns="http://www.w3.org/2000/svg" width="24" height="24" fill="none"><g clip-path="url(#a)"><path fill="#94a3b8" d="M4.38 0A4.37 4.37 0 0 0 0 4.38v15.24A4.37 4.37 0 0 0 4.38 24h8.26v-9.38h-2.48v-3.38h2.48V8.35C12.64 6.1 14.11 4 17.48 4c1.37 0 2.38.14 2.38.14l-.08 3.15-2.16-.01c-1.21 0-1.4.56-1.4 1.5v2.46h3.66l-.16 3.38h-3.5V24h3.4A4.37 4.37 0 0 0 24 19.62V4.38A4.37 4.37 0 0 0 19.62 0H4.38Z"/></g><defs><clipPath id="a"><path fill="#fff" d="M0 0h24v24H0z"/></clipPath></defs></svg>
